X: 125
T: Ali shan de gu niang
L: 1/8
M: 4/4
K: E
G B/ G/ F G B c/ B/ G F [I:setbarnb 1]| 
G6B G | 
G> F F> C E F/ E/ C B, | 
C8 | 
c c c c B GG2 | 
G F F G E CC2 | 
F> F F G B GG2 | 
F> G F E C/ E/ CC2- | 
C8 | 
C E/ C/ C B, F G/ F/ E F | 
G6B G | 
G F F C E F/ E/ C B, | 
C8 | 
c> c c B B GG2 | 
F G F G E CC2 | 
F> F F G B GG2 | 
F> G F E C/ E/ CC2- | 
C8 | 
G2F G B c/ B/ G F | 
G8 | 
F2>C2 E F/ E/ C B, | 
C8 | 
c> c c B B GG2 | 
F> G F> G E> CC2 | 
GF2GB2G B | 
F4G3B | 
c8- | 
c6z2 | 
c> c c c c e f e | 
c2B Gc2B e | 
c2B F G B B F | 
G FC2G2F G | 
B2F G C E G F/ E/ | 
C2>C2C4 | 
G B/ G/ F G B c/ B/ G F | 
G6B G | 
G2F/ G/ F/ C/ E F/ E/ C B, | 
C8 | 
c> c c B B GG2 | 
F> G F> G E> CC2 | 
G2F GB2G B | 
F4G3B | 
c8- | 
c6z2 |]

@@@ Tune index: 8793
